!! 00000] TT[WS
!!!OTL: Xiaoguafu shangfen
!!!ARE: Asia, China, Shanxi Qinyuan
!! Ethnic Group: Han
!! WII, 155 (2)
!!!SCT: J0637
!!!YEM: Copyright 1995, estate of Helmut Schaffrath.
**kern
*ICvox
*Ivox
*M2/4
*k[b-]
*F:
{4cc
8b-
8g
=1
2cc
=2
4ff
8gg
8ff
=3
8dd
8cc
4b-}
=4
{8.cc
16dd
8ff
8dd
=5
4.cc
8b-
=6
8g
8a
8g
8f
=7
2d}
=8
{8d
8f
8d
8f
=9
2g
=10
8d
8f
8d
8f
=11
2g
=12
2cc
=13
4ff
8dd
8cc
=14
4b-
8cc
8a}
=15
{8g
16a
16g
8f
8g
=16
4.b-
8cc
=17
8g
8f
8e
8d
=18
8f
8g
8f
8d
=19
4.c
8d
=20
2c}
==
!!!AGN: Xiaodiao. Qingge, Aisu
!!!ONB: ESAC (Essen Associative Code) Database: CHINA
!!!AMT: simple duple
!!!AIN: vox
!!!EED: Helmut Schaffrath
!!!EEV: 1.0
*-
